packages/gestalt-icons-android/vr-theme/ic_vr_briefcase_gestalt.svg

<svg width="24" height="24" viewBox="0 0 24 24" fill="none" xmlns="http://www.w3.org/2000/svg">
<path d="M9 13L15 13V11L9 11V13Z" fill="black"/>
<path fill-rule="evenodd" clip-rule="evenodd" d="M7 4C7 2.89543 7.89543 2 9 2H15C16.1046 2 17 2.89543 17 4V6H21C22.1046 6 23 6.89543 23 8V20C23 21.1046 22.1046 22 21 22H3C1.89543 22 1 21.1046 1 20V8C1 6.89543 1.89543 6 3 6H7V4ZM21 8V12.748C21 13.1483 20.7776 13.4552 20.4901 13.567C18.2107 14.4535 15.2543 15 12 15C8.74572 15 5.78929 14.4535 3.50988 13.567C3.22241 13.4552 3 13.1483 3 12.748V8L21 8ZM12 17C15.3654 17 18.4903 16.4528 21 15.5131V20H3V15.5131C5.5097 16.4528 8.63463 17 12 17ZM15 6V4H9V6H15Z" fill="black"/>
</svg>

<svg xmlns="http://www.w3.org/2000/svg" width="24" height="24"><path d="M9 11h6v2H9zM7 4c0-1.1.9-2 2-2h6a2 2 0 0 1 2 2v2h4a2 2 0 0 1 2 2v12a2 2 0 0 1-2 2H3a2 2 0 0 1-2-2V8c0-1.1.9-2 2-2h4zM3 8v4.75c0 .4.22.7.51.82C5.79 14.45 8.75 15 12 15s6.21-.55 8.49-1.43c.29-.11.51-.42.51-.82V8zm0 7.51V20h18v-4.49A26 26 0 0 1 12 17a26 26 0 0 1-9-1.49M15 6V4H9v2z"/></svg>
